src/assets/2008.svg

<svg width="2631" height="2501" fill="none" xmlns="http://www.w3.org/2000/svg">
  <g filter="url(#filter0_d)">
    <path d="M1687.85 670.129c-41.87-42.262 79.5-133.063-63.16-174.087C1434.35 441.306 362.631 0 362.631 0L25 718.754s511.548 613.106 557.731 664.396c46.182 51.29 252.145 249.21 388.293 209.79 136.146-39.42 132.866-53.06 142.656-40.38 9.78 12.69-88.61 142.45-9.79 226.22 78.82 83.77 223.27 90.37 325.98 137.68 102.71 47.31-117.82 435.55 294.77 502.23 412.58 66.68 361.26-288.12 390.71-340.36 29.46-52.23 118.71 27.6 164.89 0 46.18-27.59 39.99-133.36 93.54-172.17 53.55-38.81 70.32-20.4 142.13-44.78 71.81-24.38 104.39-181.77 84.19-218.51-20.2-36.74-76.94-98.96-87.55-119.86-10.42-20.53-15.19-33.37-27.27-65.88l-.67-1.79c-12.57-33.84 15.58-67.27 44.24-127.39 28.66-60.12 81.23-129.92 5.59-197.54s-180.64 21.86-225.85-45.28c-45.21-67.15 6.86-114.452-93.6-157.245-100.47-42.794-292.77 92.165-333.77 60.499-40.99-31.668 19.53-108.251-8.87-149.054-28.41-40.803-142.63-126.939-184.5-169.201z" fill="#fff"/>
  </g>
  <defs>
    <filter id="filter0_d" x="0" y="0" width="2631" height="2501" filterUnits="userSpaceOnUse" color-interpolation-filters="sRGB">
      <feFlood flood-opacity="0" result="BackgroundImageFix"/>
      <feColorMatrix in="SourceAlpha" values="0 0 0 0 0 0 0 0 0 0 0 0 0 0 0 0 0 0 127 0"/>
      <feOffset dy="49"/>
      <feGaussianBlur stdDeviation="12.5"/>
      <feColorMatrix values="0 0 0 0 0 0 0 0 0 0 0 0 0 0 0 0 0 0 0.25 0"/>
      <feBlend in2="BackgroundImageFix" result="effect1_dropShadow"/>
      <feBlend in="SourceGraphic" in2="effect1_dropShadow" result="shape"/>
    </filter>
  </defs>
</svg>

<svg width="2631" height="2501" viewBox="0 0 2631 2501" fill="none" xmlns="http://www.w3.org/2000/svg">
<g filter="url(#filter0_d)">
<path d="M1687.85 670.129C1645.98 627.867 1767.35 537.066 1624.69 496.042C1434.35 441.306 362.631 0 362.631 0L25 718.754C25 718.754 536.548 1331.86 582.731 1383.15C628.913 1434.44 834.876 1632.36 971.024 1592.94C1107.17 1553.52 1103.89 1539.88 1113.68 1552.56C1123.46 1565.25 1025.07 1695.01 1103.89 1778.78C1182.71 1862.55 1327.16 1869.15 1429.87 1916.46C1532.58 1963.77 1312.05 2352.01 1724.64 2418.69C2137.22 2485.37 2085.9 2130.57 2115.35 2078.33C2144.81 2026.1 2234.06 2105.93 2280.24 2078.33C2326.42 2050.74 2320.23 1944.97 2373.78 1906.16C2427.33 1867.35 2444.1 1885.76 2515.91 1861.38C2587.72 1837 2620.3 1679.61 2600.1 1642.87C2579.9 1606.13 2523.16 1543.91 2512.55 1523.01C2502.13 1502.48 2497.36 1489.64 2485.28 1457.13L2484.61 1455.34C2472.04 1421.5 2500.19 1388.07 2528.85 1327.95C2557.51 1267.83 2610.08 1198.03 2534.44 1130.41C2458.8 1062.79 2353.8 1152.27 2308.59 1085.13C2263.38 1017.98 2315.45 970.678 2214.99 927.885C2114.52 885.091 1922.22 1020.05 1881.22 988.384C1840.23 956.716 1900.75 880.133 1872.35 839.33C1843.94 798.527 1729.72 712.391 1687.85 670.129Z" fill="white"/>
</g>
<defs>
<filter id="filter0_d" x="0" y="0" width="2631" height="2501" filterUnits="userSpaceOnUse" color-interpolation-filters="sRGB">
<feFlood flood-opacity="0" result="BackgroundImageFix"/>
<feColorMatrix in="SourceAlpha" type="matrix" values="0 0 0 0 0 0 0 0 0 0 0 0 0 0 0 0 0 0 127 0"/>
<feOffset dy="49"/>
<feGaussianBlur stdDeviation="12.5"/>
<feColorMatrix type="matrix" values="0 0 0 0 0 0 0 0 0 0 0 0 0 0 0 0 0 0 0.25 0"/>
<feBlend mode="normal" in2="BackgroundImageFix" result="effect1_dropShadow"/>
<feBlend mode="normal" in="SourceGraphic" in2="effect1_dropShadow" result="shape"/>
</filter>
</defs>
</svg>
